X: 12690
T: Father Burke's
R: slip jig
M: 9/8
K: Gmajor
G2 B F/G/AF GDD|GDG BdB c2 F|GBG FAF Gdd|fdg f2 d cAF|
G2 B F2 A GDG|GFG GBG A2 D|G2 B F2 A GB/c/d|fcd f2 d c2 F||
G2 g =fde f2 c|g2 g dBG A/B/cA|G2 g =fde fdc|A2 ^G A2 B cAF|
Ggg =fde f2 f|g2 g dBG AB/c/d|ege f/g/af g2 a|gfe ded cAF||

